images/Spotify.svg

<svg width="33" height="33" viewBox="0 0 33 33" fill="none" xmlns="http://www.w3.org/2000/svg">
<g clip-path="url(#clip0_1_320)">
<path d="M17 1.5C8.16774 1.5 1 8.44375 1 17C1 25.5562 8.16774 32.5 17 32.5C25.8323 32.5 33 25.5562 33 17C33 8.44375 25.8323 1.5 17 1.5ZM23.4968 24.3062C23.2258 24.3062 23.0581 24.225 22.8065 24.0812C18.7806 21.7312 14.0968 21.6312 9.47097 22.55C9.21935 22.6125 8.89032 22.7125 8.70323 22.7125C8.07742 22.7125 7.68387 22.2313 7.68387 21.725C7.68387 21.0813 8.07742 20.775 8.56129 20.675C13.8452 19.5437 19.2452 19.6437 23.8516 22.3125C24.2452 22.5562 24.4774 22.775 24.4774 23.3438C24.4774 23.9125 24.0194 24.3062 23.4968 24.3062ZM25.2323 20.2062C24.8968 20.2062 24.671 20.0625 24.4387 19.9438C20.4065 17.6313 14.3935 16.7 9.04516 18.1063C8.73548 18.1875 8.56774 18.2687 8.27742 18.2687C7.5871 18.2687 7.02581 17.725 7.02581 17.0562C7.02581 16.3875 7.36129 15.9437 8.02581 15.7625C9.81936 15.275 11.6516 14.9125 14.3355 14.9125C18.5226 14.9125 22.5677 15.9188 25.7548 17.7563C26.2774 18.0562 26.4839 18.4437 26.4839 18.9875C26.4774 19.6625 25.9355 20.2062 25.2323 20.2062ZM27.2323 15.4438C26.8968 15.4438 26.6903 15.3625 26.4 15.2C21.8065 12.5437 13.5935 11.9062 8.27742 13.3438C8.04516 13.4062 7.75484 13.5063 7.44516 13.5063C6.59355 13.5063 5.94194 12.8625 5.94194 12.0312C5.94194 11.1812 6.48387 10.7 7.06452 10.5375C9.33548 9.89375 11.8774 9.5875 14.6452 9.5875C19.3548 9.5875 24.2903 10.5375 27.8968 12.575C28.4 12.8562 28.729 13.2438 28.729 13.9875C28.729 14.8375 28.0194 15.4438 27.2323 15.4438Z" fill="black"/>
</g>
<defs>
<clipPath id="clip0_1_320">
<rect width="32" height="32" fill="white" transform="translate(1 1)"/>
</clipPath>
</defs>
</svg>

<svg xmlns="http://www.w3.org/2000/svg" width="33" height="33" fill="none"><g clip-path="url(#a)"><path fill="#000" d="M17 1.5C8.168 1.5 1 8.444 1 17c0 8.556 7.168 15.5 16 15.5S33 25.556 33 17c0-8.556-7.168-15.5-16-15.5Zm6.497 22.806c-.271 0-.439-.081-.69-.225-4.026-2.35-8.71-2.45-13.336-1.531-.252.063-.58.162-.768.162a.989.989 0 0 1-1.02-.987c0-.644.394-.95.878-1.05 5.284-1.131 10.684-1.031 15.29 1.637.394.244.626.463.626 1.032s-.458.962-.98.962Zm1.735-4.1c-.335 0-.561-.143-.793-.262-4.032-2.313-10.046-3.244-15.394-1.838-.31.081-.477.163-.768.163-.69 0-1.251-.544-1.251-1.213s.335-1.112 1-1.294c1.793-.487 3.626-.85 6.31-.85 4.187 0 8.232 1.007 11.419 2.844.522.3.729.688.729 1.232a1.23 1.23 0 0 1-1.252 1.218Zm2-4.762c-.335 0-.542-.082-.832-.244-4.593-2.656-12.806-3.294-18.123-1.856-.232.062-.522.162-.832.162-.851 0-1.503-.643-1.503-1.475 0-.85.542-1.331 1.123-1.494 2.27-.643 4.812-.95 7.58-.95 4.71 0 9.645.95 13.252 2.988.503.281.832.669.832 1.413 0 .85-.71 1.456-1.497 1.456Z"/></g><defs><clipPath id="a"><path fill="#fff" d="M1 1h32v32H1z"/></clipPath></defs></svg>
